public/box1.svg

<svg width="365" height="293" viewBox="0 0 365 293" fill="none" xmlns="http://www.w3.org/2000/svg">
<rect width="365" height="293" rx="18" fill="url(#paint0_linear_2023_3410)"/>
<path d="M267.581 263.708C266.93 263.708 266.313 263.708 264.61 256.924C258.864 255.818 258.377 255.164 258.189 254.913C258.025 254.692 257.956 254.289 258.03 254.025C258.133 253.655 258.377 252.798 264.943 250.151C267.304 244 268.107 244 268.642 244C268.92 244 269.304 244.199 269.47 244.424C269.895 244.992 270.277 246.466 270.857 248.823C271.039 249.557 271.256 250.443 271.382 250.838C271.728 250.992 272.483 251.263 273.11 251.488C276.495 252.701 277.368 253.113 277.525 253.925C277.586 254.231 277.43 254.675 277.197 254.884C276.511 255.5 273.252 256.711 271.538 257.321C268.756 263.65 268.158 263.679 267.63 263.707C267.616 263.708 267.596 263.708 267.581 263.708ZM260.449 254.15C261.6 254.48 263.68 254.952 265.495 255.291C265.835 255.353 266.108 255.611 266.191 255.948C266.656 257.829 267.262 259.972 267.699 261.206C268.337 260.057 269.294 258.04 270.071 256.259C270.17 256.035 270.357 255.86 270.588 255.778C272.138 255.234 273.886 254.564 274.985 254.085C274.218 253.761 273.184 253.392 272.514 253.151C270.584 252.46 270.221 252.31 269.973 251.975C269.753 251.681 269.62 251.196 269.14 249.245C268.96 248.519 268.687 247.408 268.444 246.57C267.872 247.665 267.079 249.509 266.46 251.14C266.372 251.373 266.19 251.556 265.96 251.65C263.946 252.454 261.66 253.477 260.449 254.15Z" fill="white"/>
<path d="M32.5648 146.659C32.5628 146.659 32.5614 146.659 32.5594 146.659C32.0701 146.655 31.6763 146.258 31.6797 145.769L31.7699 130.88C31.7732 130.392 32.169 130 32.6543 130C32.6563 130 32.6577 130 32.6597 130C33.149 130.003 33.5428 130.401 33.5394 130.89L33.4493 145.779C33.4459 146.266 33.0501 146.659 32.5648 146.659Z" fill="white"/>
<path d="M26.565 143.408C26.2871 143.408 26.0119 143.277 25.8391 143.03C25.5592 142.629 25.6575 142.078 26.0587 141.798L38.3541 133.226C38.7513 132.951 39.3043 133.043 39.5863 133.445C39.8662 133.846 39.7679 134.398 39.3667 134.677L27.0712 143.249C26.9174 143.357 26.7412 143.408 26.565 143.408Z" fill="white"/>
<path d="M37.3598 144.035C37.1246 144.035 36.8915 143.942 36.7173 143.759L27.4215 133.936C27.086 133.581 27.1016 133.02 27.456 132.685C27.8118 132.346 28.3703 132.365 28.7071 132.719L38.0029 142.542C38.3384 142.897 38.3228 143.458 37.9684 143.793C37.7976 143.956 37.578 144.035 37.3598 144.035Z" fill="white"/>
<path d="M24.8845 139.056C24.3992 139.056 24.0048 138.666 24.0001 138.18C23.9946 137.691 24.387 137.292 24.8764 137.287L39.1969 137.15C39.7723 137.145 40.0847 137.537 40.0902 138.027C40.0956 138.515 39.7032 138.915 39.2138 138.92L24.8933 139.056C24.8899 139.056 24.8886 139.056 24.8845 139.056Z" fill="white"/>
<path d="M328.581 45C327.404 45 326.405 44.6655 325.613 44.0049C325.261 43.7114 324.943 43.3953 324.665 43.062C322.949 44.2275 320.388 44.8404 317.207 44.8404C316.764 44.8404 316.305 44.8291 315.829 44.8047C313.116 44.6675 311.252 43.2545 310.66 40.9087C309.238 40.6837 307.757 39.9935 306.35 38.8973C304.161 37.1908 303.458 34.6877 304.423 32.031C305.427 29.2673 308.03 27.1015 310.351 27.1015C310.726 27.1015 311.085 27.1549 311.428 27.2611C311.458 26.2007 311.69 24.4236 312.813 23.2252C314.111 21.8367 316.205 21.6177 318.962 22.6228C320.008 23.003 320.92 23.4827 321.679 24.0502C322.989 22.8057 324.623 22.1002 326.232 22.1002C327.437 22.1002 328.609 22.4776 329.715 23.22C332.186 24.8804 333.635 27.353 333.671 29.9214C335.136 30.0165 336.502 30.7272 337.642 31.9909C339.177 33.6943 339.419 35.9206 338.325 38.258C336.644 41.8496 332.091 45 328.581 45ZM325.494 42.3918C325.734 42.6814 326.01 42.9553 326.318 43.212C326.907 43.7037 327.669 43.9532 328.581 43.9532C331.665 43.9532 335.841 41.0318 337.342 37.8253C337.986 36.452 338.418 34.4447 336.829 32.6808C335.873 31.6196 334.789 31.0436 333.607 30.967C333.266 33.4212 331.608 35.224 329.446 35.4221C329.336 35.4321 329.233 35.4365 329.136 35.4365C329.136 35.4365 329.136 35.4365 329.134 35.4365C328.011 35.4365 327.596 34.7892 327.582 34.184C327.548 32.7554 329.826 30.3413 332.592 29.9619C332.569 27.7236 331.287 25.5518 329.098 24.0815C328.177 23.4618 327.212 23.1478 326.232 23.1478C324.927 23.1478 323.586 23.7253 322.488 24.7468C324.204 26.4514 324.482 28.4932 323.96 29.838C323.59 30.7877 322.83 31.3789 321.974 31.3789C321.974 31.3789 321.974 31.3789 321.973 31.3789C321.433 31.3789 320.885 31.1459 320.389 30.7051C318.827 29.3166 319.437 26.7337 320.959 24.8347C320.296 24.3502 319.499 23.9371 318.582 23.6026C316.278 22.764 314.608 22.8642 313.611 23.9287C312.274 25.3581 312.521 28.022 312.524 28.0484C312.544 28.249 312.443 28.4431 312.265 28.5474C312.087 28.6516 311.861 28.6476 311.689 28.5349C311.288 28.2782 310.839 28.1483 310.35 28.1483C308.49 28.1483 306.288 30.0462 305.441 32.3796C304.968 33.679 304.547 36.1484 307.026 38.0812C308.169 38.9719 309.351 39.5619 310.482 39.8094C310.348 38.0322 310.877 36.0883 311.843 34.9657C312.321 34.4106 312.87 34.117 313.429 34.117C313.833 34.117 314.432 34.2746 314.995 35.027C315.964 36.3205 316.156 37.7543 315.522 38.9595C314.872 40.1968 313.487 40.9492 311.801 40.9881C312.229 42.2948 313.303 43.6283 315.884 43.7591C319.528 43.936 322.306 43.3921 324.054 42.1977C322.978 40.3604 323.119 38.3836 323.782 37.1699C324.176 36.4492 324.734 36.0361 325.313 36.0361C325.712 36.0361 326.436 36.2354 326.803 37.5678C327.301 39.3734 326.824 41.1064 325.494 42.3918ZM325.315 37.0837C325.213 37.0837 324.968 37.2401 324.738 37.6604C324.238 38.5745 324.127 40.0584 324.889 41.4931C325.829 40.49 326.139 39.213 325.76 37.8385C325.591 37.2229 325.377 37.0837 325.315 37.0837ZM311.579 39.9417C312.954 39.9838 314.071 39.4171 314.562 38.4846C315.004 37.642 314.845 36.6064 314.123 35.6431C313.96 35.4241 313.707 35.1646 313.431 35.1646C313.205 35.1646 312.936 35.3322 312.674 35.6371C311.965 36.46 311.379 38.2003 311.579 39.9417ZM332.505 31.0364C330.287 31.4483 328.644 33.3871 328.662 34.1591C328.664 34.2449 328.668 34.3893 329.135 34.3893C329.136 34.3893 329.136 34.3893 329.136 34.3893C329.202 34.3893 329.271 34.3861 329.345 34.3793C330.935 34.2341 332.172 32.8933 332.505 31.0364ZM321.768 25.5293C320.463 27.1745 320.156 29.0764 321.119 29.9323C321.858 30.5876 322.6 30.367 322.95 29.469C323.344 28.4547 323.107 26.8922 321.768 25.5293Z" fill="white"/>
<defs>
<linearGradient id="paint0_linear_2023_3410" x1="182.5" y1="-6.533" x2="182.5" y2="305.862" gradientUnits="userSpaceOnUse">
<stop stop-color="#6D13FF"/>
<stop offset="0.0490798" stop-color="#9859FF"/>
<stop offset="0.898447" stop-color="#9859FF"/>
<stop offset="1" stop-color="#6D13FF"/>
</linearGradient>
</defs>
</svg>

<svg width="365" height="293" fill="none" xmlns="http://www.w3.org/2000/svg"><rect width="365" height="293" rx="18" fill="url(#a)"/><path d="M267.581 263.708c-.651 0-1.268 0-2.971-6.784-5.746-1.106-6.233-1.76-6.421-2.011-.164-.221-.233-.624-.159-.888.103-.37.347-1.227 6.913-3.874 2.361-6.151 3.164-6.151 3.699-6.151.278 0 .662.199.828.424.425.568.807 2.042 1.387 4.399.182.734.399 1.62.525 2.015.346.154 1.101.425 1.728.65 3.385 1.213 4.258 1.625 4.415 2.437.061.306-.095.75-.328.959-.686.616-3.945 1.827-5.659 2.437-2.782 6.329-3.38 6.358-3.908 6.386l-.049.001Zm-7.132-9.558c1.151.33 3.231.802 5.046 1.141.34.062.613.32.696.657.465 1.881 1.071 4.024 1.508 5.258.638-1.149 1.595-3.166 2.372-4.947a.894.894 0 0 1 .517-.481c1.55-.544 3.298-1.214 4.397-1.693-.767-.324-1.801-.693-2.471-.934-1.93-.691-2.293-.841-2.541-1.176-.22-.294-.353-.779-.833-2.73-.18-.726-.453-1.837-.696-2.675-.572 1.095-1.365 2.939-1.984 4.57a.893.893 0 0 1-.5.51c-2.014.804-4.3 1.827-5.511 2.5ZM32.565 146.659h-.006a.885.885 0 0 1-.88-.89l.09-14.889c.004-.488.4-.88.885-.88h.006c.489.003.883.401.88.89l-.09 14.889a.886.886 0 0 1-.885.88Z" fill="#fff"/><path d="M26.565 143.408a.884.884 0 0 1-.506-1.61l12.295-8.572a.884.884 0 1 1 1.013 1.451l-12.296 8.572a.875.875 0 0 1-.506.159Z" fill="#fff"/><path d="M37.36 144.035a.884.884 0 0 1-.643-.276l-9.295-9.823a.886.886 0 0 1 1.285-1.217l9.296 9.823a.886.886 0 0 1-.643 1.493Z" fill="#fff"/><path d="M24.884 139.056a.884.884 0 0 1-.008-1.769l14.32-.137c.576-.005.889.387.894.877a.884.884 0 0 1-.876.893l-14.32.136h-.01ZM328.581 45c-1.177 0-2.176-.334-2.968-.995a7.425 7.425 0 0 1-.948-.943c-1.716 1.166-4.277 1.778-7.458 1.778-.443 0-.902-.01-1.378-.035-2.713-.138-4.577-1.55-5.169-3.896-1.422-.225-2.903-.916-4.31-2.012-2.189-1.706-2.892-4.21-1.927-6.866 1.004-2.764 3.607-4.93 5.928-4.93.375 0 .734.054 1.077.16.03-1.06.262-2.837 1.385-4.036 1.298-1.388 3.392-1.607 6.149-.602 1.046.38 1.958.86 2.717 1.427 1.31-1.244 2.944-1.95 4.553-1.95 1.205 0 2.377.378 3.483 1.12 2.471 1.66 3.92 4.133 3.956 6.701 1.465.096 2.831.806 3.971 2.07 1.535 1.703 1.777 3.93.683 6.267-1.681 3.592-6.234 6.742-9.744 6.742Zm-3.087-2.608c.24.29.516.563.824.82.589.492 1.351.741 2.263.741 3.084 0 7.26-2.921 8.761-6.128.644-1.373 1.076-3.38-.513-5.144-.956-1.061-2.04-1.637-3.222-1.714-.341 2.454-1.999 4.257-4.161 4.455-.11.01-.213.015-.31.015h-.002c-1.123 0-1.538-.648-1.552-1.253-.034-1.429 2.244-3.843 5.01-4.222-.023-2.238-1.305-4.41-3.494-5.88-.921-.62-1.886-.934-2.866-.934-1.305 0-2.646.577-3.744 1.599 1.716 1.704 1.994 3.746 1.472 5.091-.37.95-1.13 1.54-1.986 1.54h-.001c-.54 0-1.088-.232-1.584-.673-1.562-1.388-.952-3.971.57-5.87-.663-.485-1.46-.898-2.377-1.232-2.304-.839-3.974-.739-4.971.326-1.337 1.43-1.09 4.093-1.087 4.12a.52.52 0 0 1-.259.498.55.55 0 0 1-.576-.012 2.44 2.44 0 0 0-1.339-.387c-1.86 0-4.062 1.898-4.909 4.232-.473 1.299-.894 3.768 1.585 5.701 1.143.89 2.325 1.48 3.456 1.728-.134-1.777.395-3.72 1.361-4.843.478-.555 1.027-.849 1.586-.849.404 0 1.003.158 1.566.91.969 1.294 1.161 2.727.527 3.932-.65 1.238-2.035 1.99-3.721 2.03.428 1.306 1.502 2.64 4.083 2.77 3.644.177 6.422-.367 8.17-1.561-1.076-1.838-.935-3.814-.272-5.028.394-.72.952-1.134 1.531-1.134.399 0 1.123.2 1.49 1.532.498 1.805.021 3.538-1.309 4.824Zm-.179-5.308c-.102 0-.347.156-.577.576-.5.915-.611 2.398.151 3.833.94-1.003 1.25-2.28.871-3.654-.169-.616-.383-.755-.445-.755Zm-13.736 2.858c1.375.042 2.492-.525 2.983-1.457.442-.843.283-1.879-.439-2.842-.163-.219-.416-.478-.692-.478-.226 0-.495.167-.757.472-.709.823-1.295 2.563-1.095 4.305Zm20.926-8.906c-2.218.412-3.861 2.351-3.843 3.123.002.086.006.23.473.23h.001c.066 0 .135-.003.209-.01 1.59-.145 2.827-1.486 3.16-3.343Zm-10.737-5.507c-1.305 1.645-1.612 3.547-.649 4.403.739.656 1.481.435 1.831-.463.394-1.014.157-2.577-1.182-3.94Z" fill="#fff"/><defs><linearGradient id="a" x1="182.5" y1="-6.533" x2="182.5" y2="305.862" gradientUnits="userSpaceOnUse"><stop stop-color="#6D13FF"/><stop offset=".049" stop-color="#9859FF"/><stop offset=".898" stop-color="#9859FF"/><stop offset="1" stop-color="#6D13FF"/></linearGradient></defs></svg>
